img/logo.svg

<svg width="222" height="40" viewBox="0 0 222 40" fill="none" xmlns="http://www.w3.org/2000/svg">
<g clip-path="url(#clip0_1776_16845)">
<path d="M56.8054 6.25882C56.1365 3.81176 54.1777 1.88235 51.6934 1.22353C47.1547 0 28.9999 0 28.9999 0C28.9999 0 10.8451 0 6.3064 1.17647C3.86984 1.83529 1.86325 3.81176 1.19439 6.25882C0 10.7294 0 20 0 20C0 20 0 29.3176 1.19439 33.7412C1.86325 36.1882 3.82206 38.1176 6.3064 38.7765C10.8929 40 28.9999 40 28.9999 40C28.9999 40 47.1547 40 51.6934 38.8235C54.1777 38.1647 56.1365 36.2353 56.8054 33.7882C57.9998 29.3176 57.9998 20.0471 57.9998 20.0471C57.9998 20.0471 58.0475 10.7294 56.8054 6.25882V6.25882Z" fill="#29BA98"/>
<path d="M33.125 15.5H24.875C25.2188 13.375 25.7656 11.6562 26.5156 10.3438C27.2656 9.03125 28.0938 8.375 29 8.375C29.9062 8.375 30.7344 9.03125 31.4844 10.3438C32.2344 11.6562 32.7812 13.375 33.125 15.5ZM24.6406 23C24.5469 22 24.5 21 24.5 20C24.5 19 24.5469 18 24.6406 17H33.3594C33.4531 18 33.5 19 33.5 20C33.5 21 33.4531 22 33.3594 23H24.6406ZM39.7344 15.5H34.6719C34.2031 12.625 33.4219 10.4062 32.3281 8.84375C33.9844 9.34375 35.4531 10.1875 36.7344 11.375C38.0469 12.5312 39.0469 13.9062 39.7344 15.5ZM25.6719 8.84375C24.5469 10.4062 23.7656 12.625 23.3281 15.5H18.2656C18.9531 13.9062 19.9375 12.5312 21.2188 11.375C22.5312 10.1875 24.0156 9.34375 25.6719 8.84375ZM40.2031 17C40.4844 18 40.625 19 40.625 20C40.625 21 40.4844 22 40.2031 23H34.8594C34.9531 21.9688 35 20.9688 35 20C35 19.0312 34.9531 18.0312 34.8594 17H40.2031ZM23 20C23 20.9375 23.0469 21.9375 23.1406 23H17.7969C17.5156 21.9688 17.375 20.9688 17.375 20C17.375 19.0312 17.5156 18.0312 17.7969 17H23.1406C23.0469 18.0312 23 19.0312 23 20ZM24.875 24.5H33.125C32.7812 26.625 32.2344 28.3438 31.4844 29.6562C30.7344 30.9688 29.9062 31.625 29 31.625C28.0938 31.625 27.2656 30.9688 26.5156 29.6562C25.7656 28.3438 25.2188 26.625 24.875 24.5ZM32.3281 31.1562C33.4531 29.5938 34.2344 27.375 34.6719 24.5H39.7344C39.0469 26.0938 38.0469 27.4844 36.7344 28.6719C35.4531 29.8281 33.9844 30.6562 32.3281 31.1562ZM18.2656 24.5H23.3281C23.7969 27.375 24.5781 29.5938 25.6719 31.1562C24.0156 30.6562 22.5312 29.8281 21.2188 28.6719C19.9375 27.4844 18.9531 26.0938 18.2656 24.5Z" fill="white"/>
</g>
<path d="M80.688 6.32007V30.0001H76.208V6.32007H80.688Z" fill="#29BA98"/>
<path d="M83.9623 21.0721C83.9623 19.2801 84.3143 17.6907 85.0183 16.3041C85.7436 14.9174 86.7143 13.8507 87.9303 13.1041C89.1676 12.3574 90.5436 11.9841 92.0583 11.9841C93.3809 11.9841 94.5329 12.2507 95.5143 12.7841C96.5169 13.3174 97.3169 13.9894 97.9143 14.8001V12.2721H102.426V30.0001H97.9143V27.4081C97.3383 28.2401 96.5383 28.9334 95.5143 29.4881C94.5116 30.0214 93.3489 30.2881 92.0263 30.2881C90.5329 30.2881 89.1676 29.9041 87.9303 29.1361C86.7143 28.3681 85.7436 27.2907 85.0183 25.9041C84.3143 24.4961 83.9623 22.8854 83.9623 21.0721ZM97.9143 21.1361C97.9143 20.0481 97.7009 19.1201 97.2743 18.3521C96.8476 17.5627 96.2716 16.9654 95.5463 16.5601C94.8209 16.1334 94.0423 15.9201 93.2103 15.9201C92.3783 15.9201 91.6103 16.1227 90.9063 16.5281C90.2023 16.9334 89.6263 17.5307 89.1783 18.3201C88.7516 19.0881 88.5383 20.0054 88.5383 21.0721C88.5383 22.1387 88.7516 23.0774 89.1783 23.8881C89.6263 24.6774 90.2023 25.2854 90.9063 25.7121C91.6316 26.1387 92.3996 26.3521 93.2103 26.3521C94.0423 26.3521 94.8209 26.1494 95.5463 25.7441C96.2716 25.3174 96.8476 24.7201 97.2743 23.9521C97.7009 23.1627 97.9143 22.2241 97.9143 21.1361Z" fill="#29BA98"/>
<path d="M116.626 12.0161C118.738 12.0161 120.444 12.6881 121.746 14.0321C123.047 15.3547 123.698 17.2107 123.698 19.6001V30.0001H119.218V20.2081C119.218 18.8001 118.866 17.7227 118.162 16.9761C117.458 16.2081 116.498 15.8241 115.282 15.8241C114.044 15.8241 113.063 16.2081 112.338 16.9761C111.634 17.7227 111.282 18.8001 111.282 20.2081V30.0001H106.802V12.2721H111.282V14.4801C111.879 13.7121 112.636 13.1147 113.554 12.6881C114.492 12.2401 115.516 12.0161 116.626 12.0161Z" fill="#29BA98"/>
<path d="M134.902 11.9841C136.225 11.9841 137.387 12.2507 138.39 12.7841C139.393 13.2961 140.182 13.9681 140.758 14.8001V12.2721H145.27V30.1281C145.27 31.7707 144.939 33.2321 144.278 34.5121C143.617 35.8134 142.625 36.8374 141.302 37.5841C139.979 38.3521 138.379 38.7361 136.502 38.7361C133.985 38.7361 131.915 38.1494 130.294 36.9761C128.694 35.8027 127.787 34.2027 127.574 32.1761H132.022C132.257 32.9867 132.758 33.6267 133.526 34.0961C134.315 34.5867 135.265 34.8321 136.374 34.8321C137.675 34.8321 138.731 34.4374 139.542 33.6481C140.353 32.8801 140.758 31.7067 140.758 30.1281V27.3761C140.182 28.2081 139.382 28.9014 138.358 29.4561C137.355 30.0107 136.203 30.2881 134.902 30.2881C133.409 30.2881 132.043 29.9041 130.806 29.1361C129.569 28.3681 128.587 27.2907 127.862 25.9041C127.158 24.4961 126.806 22.8854 126.806 21.0721C126.806 19.2801 127.158 17.6907 127.862 16.3041C128.587 14.9174 129.558 13.8507 130.774 13.1041C132.011 12.3574 133.387 11.9841 134.902 11.9841ZM140.758 21.1361C140.758 20.0481 140.545 19.1201 140.118 18.3521C139.691 17.5627 139.115 16.9654 138.39 16.5601C137.665 16.1334 136.886 15.9201 136.054 15.9201C135.222 15.9201 134.454 16.1227 133.75 16.5281C133.046 16.9334 132.47 17.5307 132.022 18.3201C131.595 19.0881 131.382 20.0054 131.382 21.0721C131.382 22.1387 131.595 23.0774 132.022 23.8881C132.47 24.6774 133.046 25.2854 133.75 25.7121C134.475 26.1387 135.243 26.3521 136.054 26.3521C136.886 26.3521 137.665 26.1494 138.39 25.7441C139.115 25.3174 139.691 24.7201 140.118 23.9521C140.545 23.1627 140.758 22.2241 140.758 21.1361Z" fill="#29BA98"/>
<path d="M151.63 30.2241C150.819 30.2241 150.147 29.9787 149.614 29.4881C149.102 28.9761 148.846 28.3467 148.846 27.6001C148.846 26.8534 149.102 26.2347 149.614 25.7441C150.147 25.2321 150.819 24.9761 151.63 24.9761C152.419 24.9761 153.07 25.2321 153.582 25.7441C154.094 26.2347 154.35 26.8534 154.35 27.6001C154.35 28.3467 154.094 28.9761 153.582 29.4881C153.07 29.9787 152.419 30.2241 151.63 30.2241Z" fill="#29BA98"/>
<path d="M156.806 21.0721C156.806 19.2801 157.158 17.6907 157.862 16.3041C158.587 14.9174 159.558 13.8507 160.774 13.1041C162.011 12.3574 163.387 11.9841 164.902 11.9841C166.225 11.9841 167.377 12.2507 168.358 12.7841C169.361 13.3174 170.161 13.9894 170.758 14.8001V12.2721H175.27V30.0001H170.758V27.4081C170.182 28.2401 169.382 28.9334 168.358 29.4881C167.355 30.0214 166.193 30.2881 164.87 30.2881C163.377 30.2881 162.011 29.9041 160.774 29.1361C159.558 28.3681 158.587 27.2907 157.862 25.9041C157.158 24.4961 156.806 22.8854 156.806 21.0721ZM170.758 21.1361C170.758 20.0481 170.545 19.1201 170.118 18.3521C169.691 17.5627 169.115 16.9654 168.39 16.5601C167.665 16.1334 166.886 15.9201 166.054 15.9201C165.222 15.9201 164.454 16.1227 163.75 16.5281C163.046 16.9334 162.47 17.5307 162.022 18.3201C161.595 19.0881 161.382 20.0054 161.382 21.0721C161.382 22.1387 161.595 23.0774 162.022 23.8881C162.47 24.6774 163.046 25.2854 163.75 25.7121C164.475 26.1387 165.243 26.3521 166.054 26.3521C166.886 26.3521 167.665 26.1494 168.39 25.7441C169.115 25.3174 169.691 24.7201 170.118 23.9521C170.545 23.1627 170.758 22.2241 170.758 21.1361Z" fill="#29BA98"/>
<path d="M184.126 14.8321C184.702 14.0214 185.491 13.3494 186.494 12.8161C187.518 12.2614 188.68 11.9841 189.982 11.9841C191.496 11.9841 192.862 12.3574 194.078 13.1041C195.315 13.8507 196.286 14.9174 196.99 16.3041C197.715 17.6694 198.078 19.2587 198.078 21.0721C198.078 22.8854 197.715 24.4961 196.99 25.9041C196.286 27.2907 195.315 28.3681 194.078 29.1361C192.862 29.9041 191.496 30.2881 189.982 30.2881C188.68 30.2881 187.528 30.0214 186.526 29.4881C185.544 28.9547 184.744 28.2827 184.126 27.4721V38.4481H179.646V12.2721H184.126V14.8321ZM193.502 21.0721C193.502 20.0054 193.278 19.0881 192.83 18.3201C192.403 17.5307 191.827 16.9334 191.102 16.5281C190.398 16.1227 189.63 15.9201 188.798 15.9201C187.987 15.9201 187.219 16.1334 186.494 16.5601C185.79 16.9654 185.214 17.5627 184.766 18.3521C184.339 19.1414 184.126 20.0694 184.126 21.1361C184.126 22.2027 184.339 23.1307 184.766 23.9201C185.214 24.7094 185.79 25.3174 186.494 25.7441C187.219 26.1494 187.987 26.3521 188.798 26.3521C189.63 26.3521 190.398 26.1387 191.102 25.7121C191.827 25.2854 192.403 24.6774 192.83 23.8881C193.278 23.0987 193.502 22.1601 193.502 21.0721Z" fill="#29BA98"/>
<path d="M205.813 14.8321C206.389 14.0214 207.178 13.3494 208.181 12.8161C209.205 12.2614 210.368 11.9841 211.669 11.9841C213.184 11.9841 214.549 12.3574 215.765 13.1041C217.002 13.8507 217.973 14.9174 218.677 16.3041C219.402 17.6694 219.765 19.2587 219.765 21.0721C219.765 22.8854 219.402 24.4961 218.677 25.9041C217.973 27.2907 217.002 28.3681 215.765 29.1361C214.549 29.9041 213.184 30.2881 211.669 30.2881C210.368 30.2881 209.216 30.0214 208.213 29.4881C207.232 28.9547 206.432 28.2827 205.813 27.4721V38.4481H201.333V12.2721H205.813V14.8321ZM215.189 21.0721C215.189 20.0054 214.965 19.0881 214.517 18.3201C214.09 17.5307 213.514 16.9334 212.789 16.5281C212.085 16.1227 211.317 15.9201 210.485 15.9201C209.674 15.9201 208.906 16.1334 208.181 16.5601C207.477 16.9654 206.901 17.5627 206.453 18.3521C206.026 19.1414 205.813 20.0694 205.813 21.1361C205.813 22.2027 206.026 23.1307 206.453 23.9201C206.901 24.7094 207.477 25.3174 208.181 25.7441C208.906 26.1494 209.674 26.3521 210.485 26.3521C211.317 26.3521 212.085 26.1387 212.789 25.7121C213.514 25.2854 214.09 24.6774 214.517 23.8881C214.965 23.0987 215.189 22.1601 215.189 21.0721Z" fill="#29BA98"/>
<defs>
<clipPath id="clip0_1776_16845">
<rect width="58" height="40" fill="white"/>
</clipPath>
</defs>
</svg>

<svg xmlns="http://www.w3.org/2000/svg" width="222" height="40" fill="none"><g clip-path="url(#a)"><path fill="#29BA98" d="M56.805 6.259c-.669-2.447-2.627-4.377-5.112-5.035C47.155 0 29 0 29 0S10.845 0 6.306 1.176c-2.436.66-4.443 2.636-5.112 5.083C0 10.729 0 20 0 20s0 9.318 1.194 13.741c.67 2.447 2.628 4.377 5.112 5.035C10.893 40 29 40 29 40s18.155 0 22.693-1.176c2.485-.66 4.444-2.589 5.112-5.036C58 29.318 58 20.048 58 20.048s.047-9.319-1.195-13.79Z"/><path fill="#fff" d="M33.125 15.5h-8.25c.344-2.125.89-3.844 1.64-5.156.75-1.313 1.579-1.969 2.485-1.969.906 0 1.734.656 2.484 1.969.75 1.312 1.297 3.031 1.641 5.156ZM24.641 23a32.14 32.14 0 0 1 0-6h8.718a32.14 32.14 0 0 1 0 6h-8.718Zm15.093-7.5h-5.062c-.469-2.875-1.25-5.094-2.344-6.656a11.14 11.14 0 0 1 4.406 2.531 11.51 11.51 0 0 1 3 4.125ZM25.672 8.844c-1.125 1.562-1.906 3.781-2.344 6.656h-5.062a11.77 11.77 0 0 1 2.953-4.125 11.537 11.537 0 0 1 4.453-2.531ZM40.203 17c.281 1 .422 2 .422 3s-.14 2-.422 3H34.86c.094-1.031.141-2.031.141-3 0-.969-.047-1.969-.14-3h5.343ZM23 20c0 .938.047 1.938.14 3h-5.343a11.38 11.38 0 0 1-.422-3c0-.969.14-1.969.422-3h5.344A33.165 33.165 0 0 0 23 20Zm1.875 4.5h8.25c-.344 2.125-.89 3.844-1.64 5.156-.75 1.313-1.579 1.969-2.485 1.969-.906 0-1.734-.656-2.484-1.969-.75-1.312-1.297-3.031-1.641-5.156Zm7.453 6.656c1.125-1.562 1.906-3.781 2.344-6.656h5.062a11.96 11.96 0 0 1-3 4.172 11.427 11.427 0 0 1-4.406 2.484ZM18.266 24.5h5.062c.469 2.875 1.25 5.094 2.344 6.656a11.842 11.842 0 0 1-4.453-2.484 12.24 12.24 0 0 1-2.953-4.172Z"/></g><path fill="#29BA98" d="M80.688 6.32V30h-4.48V6.32h4.48ZM83.962 21.072c0-1.792.352-3.381 1.056-4.768.726-1.387 1.696-2.453 2.912-3.2 1.238-.747 2.614-1.12 4.128-1.12 1.323 0 2.475.267 3.456.8 1.003.533 1.803 1.205 2.4 2.016v-2.528h4.512V30h-4.512v-2.592c-.576.832-1.376 1.525-2.4 2.08-1.002.533-2.165.8-3.488.8-1.493 0-2.858-.384-4.096-1.152-1.216-.768-2.186-1.845-2.912-3.232-.704-1.408-1.056-3.019-1.056-4.832Zm13.952.064c0-1.088-.213-2.016-.64-2.784-.426-.79-1.002-1.387-1.728-1.792a4.53 4.53 0 0 0-2.336-.64c-.832 0-1.6.203-2.304.608-.704.405-1.28 1.003-1.728 1.792-.426.768-.64 1.685-.64 2.752 0 1.067.214 2.005.64 2.816.448.79 1.024 1.397 1.728 1.824.726.427 1.494.64 2.304.64.832 0 1.61-.203 2.336-.608a4.656 4.656 0 0 0 1.728-1.792c.427-.79.64-1.728.64-2.816ZM116.626 12.016c2.112 0 3.818.672 5.12 2.016 1.301 1.323 1.952 3.179 1.952 5.568V30h-4.48v-9.792c0-1.408-.352-2.485-1.056-3.232-.704-.768-1.664-1.152-2.88-1.152-1.238 0-2.219.384-2.944 1.152-.704.747-1.056 1.824-1.056 3.232V30h-4.48V12.272h4.48v2.208a6.065 6.065 0 0 1 2.272-1.792c.938-.448 1.962-.672 3.072-.672ZM134.902 11.984c1.323 0 2.485.267 3.488.8 1.003.512 1.792 1.184 2.368 2.016v-2.528h4.512v17.856c0 1.643-.331 3.104-.992 4.384-.661 1.301-1.653 2.325-2.976 3.072-1.323.768-2.923 1.152-4.8 1.152-2.517 0-4.587-.587-6.208-1.76-1.6-1.173-2.507-2.773-2.72-4.8h4.448c.235.81.736 1.45 1.504 1.92.789.49 1.739.736 2.848.736 1.301 0 2.357-.395 3.168-1.184.811-.768 1.216-1.941 1.216-3.52v-2.752c-.576.832-1.376 1.525-2.4 2.08-1.003.555-2.155.832-3.456.832-1.493 0-2.859-.384-4.096-1.152-1.237-.768-2.219-1.845-2.944-3.232-.704-1.408-1.056-3.019-1.056-4.832 0-1.792.352-3.381 1.056-4.768.725-1.387 1.696-2.453 2.912-3.2 1.237-.747 2.613-1.12 4.128-1.12Zm5.856 9.152c0-1.088-.213-2.016-.64-2.784-.427-.79-1.003-1.387-1.728-1.792a4.529 4.529 0 0 0-2.336-.64c-.832 0-1.6.203-2.304.608-.704.405-1.28 1.003-1.728 1.792-.427.768-.64 1.685-.64 2.752 0 1.067.213 2.005.64 2.816.448.79 1.024 1.397 1.728 1.824.725.427 1.493.64 2.304.64.832 0 1.611-.203 2.336-.608a4.66 4.66 0 0 0 1.728-1.792c.427-.79.64-1.728.64-2.816ZM151.63 30.224c-.811 0-1.483-.245-2.016-.736-.512-.512-.768-1.141-.768-1.888 0-.747.256-1.365.768-1.856.533-.512 1.205-.768 2.016-.768.789 0 1.44.256 1.952.768.512.49.768 1.11.768 1.856 0 .747-.256 1.376-.768 1.888-.512.49-1.163.736-1.952.736ZM156.806 21.072c0-1.792.352-3.381 1.056-4.768.725-1.387 1.696-2.453 2.912-3.2 1.237-.747 2.613-1.12 4.128-1.12 1.323 0 2.475.267 3.456.8 1.003.533 1.803 1.205 2.4 2.016v-2.528h4.512V30h-4.512v-2.592c-.576.832-1.376 1.525-2.4 2.08-1.003.533-2.165.8-3.488.8-1.493 0-2.859-.384-4.096-1.152-1.216-.768-2.187-1.845-2.912-3.232-.704-1.408-1.056-3.019-1.056-4.832Zm13.952.064c0-1.088-.213-2.016-.64-2.784-.427-.79-1.003-1.387-1.728-1.792a4.529 4.529 0 0 0-2.336-.64c-.832 0-1.6.203-2.304.608-.704.405-1.28 1.003-1.728 1.792-.427.768-.64 1.685-.64 2.752 0 1.067.213 2.005.64 2.816.448.79 1.024 1.397 1.728 1.824.725.427 1.493.64 2.304.64.832 0 1.611-.203 2.336-.608a4.66 4.66 0 0 0 1.728-1.792c.427-.79.64-1.728.64-2.816ZM184.126 14.832c.576-.81 1.365-1.483 2.368-2.016 1.024-.555 2.186-.832 3.488-.832 1.514 0 2.88.373 4.096 1.12 1.237.747 2.208 1.813 2.912 3.2.725 1.365 1.088 2.955 1.088 4.768 0 1.813-.363 3.424-1.088 4.832-.704 1.387-1.675 2.464-2.912 3.232-1.216.768-2.582 1.152-4.096 1.152-1.302 0-2.454-.267-3.456-.8-.982-.533-1.782-1.205-2.4-2.016v10.976h-4.48V12.272h4.48v2.56Zm9.376 6.24c0-1.067-.224-1.984-.672-2.752-.427-.79-1.003-1.387-1.728-1.792a4.537 4.537 0 0 0-2.304-.608c-.811 0-1.579.213-2.304.64-.704.405-1.28 1.003-1.728 1.792-.427.79-.64 1.717-.64 2.784 0 1.067.213 1.995.64 2.784.448.79 1.024 1.397 1.728 1.824a4.651 4.651 0 0 0 2.304.608c.832 0 1.6-.213 2.304-.64.725-.427 1.301-1.035 1.728-1.824.448-.79.672-1.728.672-2.816ZM205.813 14.832c.576-.81 1.365-1.483 2.368-2.016 1.024-.555 2.187-.832 3.488-.832 1.515 0 2.88.373 4.096 1.12 1.237.747 2.208 1.813 2.912 3.2.725 1.365 1.088 2.955 1.088 4.768 0 1.813-.363 3.424-1.088 4.832-.704 1.387-1.675 2.464-2.912 3.232-1.216.768-2.581 1.152-4.096 1.152-1.301 0-2.453-.267-3.456-.8-.981-.533-1.781-1.205-2.4-2.016v10.976h-4.48V12.272h4.48v2.56Zm9.376 6.24c0-1.067-.224-1.984-.672-2.752-.427-.79-1.003-1.387-1.728-1.792a4.537 4.537 0 0 0-2.304-.608c-.811 0-1.579.213-2.304.64-.704.405-1.28 1.003-1.728 1.792-.427.79-.64 1.717-.64 2.784 0 1.067.213 1.995.64 2.784.448.79 1.024 1.397 1.728 1.824a4.651 4.651 0 0 0 2.304.608c.832 0 1.6-.213 2.304-.64.725-.427 1.301-1.035 1.728-1.824.448-.79.672-1.728.672-2.816Z"/><defs><clipPath id="a"><path fill="#fff" d="M0 0h58v40H0z"/></clipPath></defs></svg>
